assets/images/feedback.svg

<svg width="32" height="32" viewBox="0 0 32 32" fill="none" xmlns="http://www.w3.org/2000/svg">
<path d="M32 10.6467C32 12.06 31.6533 13.58 30.9867 15.1667C30.7733 15.6734 30.28 15.98 29.76 15.98C29.5867 15.98 29.4133 15.94 29.24 15.8734C28.56 15.58 28.24 14.8067 28.5333 14.1267C29.0667 12.8734 29.3333 11.7 29.3333 10.6467C29.3333 7.03335 26.5867 3.98002 23.3333 3.98002C20.36 3.98002 18.6533 5.18002 17.5067 6.23335L12.4133 10.9667C11.9467 11.4334 11.8267 12.2334 12.2 12.74C12.44 13.0734 12.7867 13.2734 13.1867 13.3C13.5867 13.34 13.96 13.1934 14.24 12.9134L19.8 7.59335C20.3333 7.08669 21.1733 7.10002 21.68 7.63335C22.1867 8.16669 22.1733 9.00669 21.64 9.51335L19.9867 11.0867L26.32 16.6467C27.8 17.9534 28.1733 20.1267 27.1733 21.7267C26.56 22.7134 25.56 23.3667 24.4133 23.54C24.3333 23.54 24.2667 23.5534 24.1867 23.5667C24.1867 24.2467 24 24.9267 23.6267 25.54C23.0133 26.5267 22.0133 27.18 20.8667 27.3534C20.6133 27.3934 20.3733 27.4067 20.1333 27.3934C20.0667 27.9 19.8933 28.3934 19.6 28.8467C18.9867 29.8334 18 30.7 16.28 30.7C15.3333 30.7 14.4267 30.3667 13.7067 29.7267L9.57333 26.02C5.2 22.06 0 16.1934 0 10.6467C0 5.50002 3.89333 1.31335 8.66667 1.31335C9.77333 1.31335 10.84 1.54002 11.8667 1.98002C12.5467 2.27335 12.8533 3.06002 12.56 3.74002C12.2667 4.42002 11.48 4.72669 10.8 4.43335C10.12 4.14002 9.4 3.99335 8.66667 3.99335C5.41333 3.99335 2.66667 7.04669 2.66667 10.66C2.66667 14.2734 5.74667 18.98 11.3467 24.0334L15.4667 27.7267C15.7333 27.9534 16.0933 28.06 16.4533 28.0067C16.8133 27.9534 17.1333 27.7534 17.3333 27.42C17.64 26.9267 17.4933 26.1934 16.9867 25.7534L12.7067 21.6867C12.1733 21.18 12.1467 20.34 12.6533 19.8067C13.16 19.2734 14 19.2467 14.5333 19.7534L19.4933 24.4334C19.7333 24.6467 20.1067 24.7534 20.4533 24.7C20.8133 24.6467 21.1333 24.4334 21.3333 24.1134C21.64 23.62 21.4933 22.8867 20.9867 22.4467L16.24 18.1534C15.6933 17.66 15.6533 16.82 16.1467 16.2734C16.64 15.7267 17.48 15.6867 18.0267 16.1667L23.0133 20.6067C23.28 20.8467 23.64 20.9534 24 20.9C24.36 20.8467 24.68 20.6334 24.88 20.3134C25.1867 19.82 25.04 19.0867 24.5333 18.6467L18.0267 12.94L16.0667 14.82C15.2533 15.6334 14.12 16.0467 12.9333 15.9534C11.76 15.86 10.6933 15.2467 10 14.2867C8.86667 12.7267 9.10667 10.46 10.5333 9.03335L15.68 4.26002C17.0667 2.98002 19.36 1.30002 23.3067 1.30002C28.08 1.30002 31.9733 5.48669 31.9733 10.6334L32 10.6467Z" fill="#CC7514"/>
</svg>

<?xml version="1.0" encoding="UTF-8"?>
<svg id="Layer_1" xmlns="http://www.w3.org/2000/svg" version="1.1" viewBox="0 0 32 32">
  <!-- Generator: Adobe Illustrator 29.5.1, SVG Export Plug-In . SVG Version: 2.1.0 Build 141)  -->
  <defs>
    <style>
      .st0 {
        fill: #cc7514;
      }
    </style>
  </defs>
  <path class="st0" d="M32,10.65c0,1.41-.35,2.93-1.01,4.52-.21.51-.71.81-1.23.81-.17,0-.35-.04-.52-.11-.68-.29-1-1.07-.71-1.75.53-1.25.8-2.43.8-3.48,0-3.61-2.75-6.67-6-6.67-2.97,0-4.68,1.2-5.83,2.25l-5.09,4.73c-.47.47-.59,1.27-.21,1.77.24.33.59.53.99.56.4.04.77-.11,1.05-.39l5.56-5.32c.53-.51,1.37-.49,1.88.04.51.53.49,1.37-.04,1.88l-1.65,1.57,6.33,5.56c1.48,1.31,1.85,3.48.85,5.08-.61.99-1.61,1.64-2.76,1.81-.08,0-.15.01-.23.03,0,.68-.19,1.36-.56,1.97-.61.99-1.61,1.64-2.76,1.81-.25.04-.49.05-.73.04-.07.51-.24,1-.53,1.45-.61.99-1.6,1.85-3.32,1.85-.95,0-1.85-.33-2.57-.97l-4.13-3.71C5.2,22.06,0,16.19,0,10.65,0,5.5,3.89,1.31,8.67,1.31c1.11,0,2.17.23,3.2.67.68.29.99,1.08.69,1.76-.29.68-1.08.99-1.76.69-.68-.29-1.4-.44-2.13-.44-3.25,0-6,3.05-6,6.67s3.08,8.32,8.68,13.37l4.12,3.69c.27.23.63.33.99.28.36-.05.68-.25.88-.59.31-.49.16-1.23-.35-1.67l-4.28-4.07c-.53-.51-.56-1.35-.05-1.88.51-.53,1.35-.56,1.88-.05l4.96,4.68c.24.21.61.32.96.27.36-.05.68-.27.88-.59.31-.49.16-1.23-.35-1.67l-4.75-4.29c-.55-.49-.59-1.33-.09-1.88.49-.55,1.33-.59,1.88-.11l4.99,4.44c.27.24.63.35.99.29.36-.05.68-.27.88-.59.31-.49.16-1.23-.35-1.67l-6.51-5.71-1.96,1.88c-.81.81-1.95,1.23-3.13,1.13-1.17-.09-2.24-.71-2.93-1.67-1.13-1.56-.89-3.83.53-5.25l5.15-4.77c1.39-1.28,3.68-2.96,7.63-2.96,4.77,0,8.67,4.19,8.67,9.33h.03Z"/>
</svg>
